Icons/Colored/LockOpen.svg

<svg xmlns="http://www.w3.org/2000/svg" xml:space="preserve" fill-rule="evenodd" stroke-linejoin="round" stroke-miterlimit="2" clip-rule="evenodd" viewBox="0 0 64 64">
  <g id="brown">
    <path fill="#aa7850" d="M9.701 29.023h45.332c2.985 0 2.63 1.993 2.637 4.657V53c0 2.664.348 5-2.637 5H9.701c-2.98 0-3.082-2.164-3.082-4.828v-19.32c0-2.664.102-4.829 3.082-4.829Z"/>
  </g>
  <g id="grey">
    <path fill="#acabab" d="m40.254 29.023-.008-11.246c-.25-4.199-3.894-7.461-8.098-7.242-4.203-.215-7.843 3.043-8.097 7.242v3.192h-9.004v-3.192c0-8.429 7.668-15.293 17.101-15.293 9.43 0 17.106 6.864 17.106 15.293v11.246h-9Z"/>
  </g>
</svg>

<?xml version="1.0" encoding="UTF-8" standalone="no"?>
<!DOCTYPE svg PUBLIC "-//W3C//DTD SVG 1.1//EN" "http://www.w3.org/Graphics/SVG/1.1/DTD/svg11.dtd">
<svg width="100%" height="100%" viewBox="0 0 64 64" version="1.1" xmlns="http://www.w3.org/2000/svg" xmlns:xlink="http://www.w3.org/1999/xlink" xml:space="preserve" xmlns:serif="http://www.serif.com/" style="fill-rule:evenodd;clip-rule:evenodd;stroke-linejoin:round;stroke-miterlimit:2;">
    <g id="surface1">
        <path d="M10.031,29.023L40.254,29.023L40.246,17.777C39.996,13.578 36.352,10.316 32.148,10.535C27.945,10.32 24.305,13.578 24.051,17.777L24.051,20.969L15.047,20.969L15.047,17.777C15.047,9.348 22.715,2.484 32.148,2.484C41.578,2.484 49.254,9.348 49.254,17.777L49.254,29.023L55.363,29.023C58.348,29.023 57.348,31.188 57.355,33.852L57.355,53.172C57.355,55.836 58.348,58 55.363,58L10.031,58C7.051,58 6.949,55.836 6.949,53.172L6.949,33.852C6.949,31.188 7.051,29.023 10.031,29.023Z" style="fill:#aa7850;"/>
        <path d="M40.254,29.023L40.246,17.777C39.996,13.578 36.352,10.316 32.148,10.535C27.945,10.32 24.305,13.578 24.051,17.777L24.051,20.969L15.047,20.969L15.047,17.777C15.047,9.348 22.715,2.484 32.148,2.484C41.578,2.484 49.254,9.348 49.254,17.777L49.254,29.023L40.254,29.023Z" style="fill:#acabab;"/>
    </g>
</svg>
